assets/Parrot/Flat/parrot_flat.svg

<svg width="32" height="32" viewBox="0 0 32 32" fill="none" xmlns="http://www.w3.org/2000/svg">
<path d="M11.04 2.00635C13.7 1.87635 15.96 3.75635 16.42 6.26635L18.136 14.6323L15.5701 19.6373L19.6086 21.8117L19.62 21.8673V21.7863L27.27 21.0563C27.64 21.0263 27.96 21.3163 27.95 21.6863V23.8763C27.95 25.5963 26.56 26.9963 24.83 26.9963H19.8652L19.86 26.9964H16.9528L16.2098 27.6519L15.4669 26.9964H14.17C13.9072 26.9964 13.6468 26.9866 13.3891 26.9675L12.5047 27.4319L11.9572 26.7606C7.40256 25.7735 4 21.8026 4 17.0464C4 14.8264 4.76 12.7264 6.06 11.0364C6.52 10.4564 6.64 9.67635 6.39 8.97635C6.17 8.35635 6.06 7.66635 6.09 6.95635C6.22 4.26635 8.34 2.12635 11.04 2.00635Z" fill="#F70A8D"/>
<path d="M8.86998 7.88634C8.86998 8.85836 8.082 9.64634 7.10998 9.64634C6.13795 9.64634 5.34998 8.85836 5.34998 7.88634C5.34998 6.91432 6.13795 6.12634 7.10998 6.12634C8.082 6.12634 8.86998 6.91432 8.86998 7.88634Z" fill="#FF822D"/>
<path d="M11.46 28.4964L11.9508 26.7592C12.4197 26.8611 12.9009 26.9314 13.3919 26.9677L12.96 28.4964H14.21C14.62 28.4964 14.96 28.8364 14.96 29.2464C14.96 29.6564 14.62 29.9964 14.21 29.9964H8.71002C8.29002 29.9964 7.96002 29.6564 7.96002 29.2464C7.96002 28.8364 8.30002 28.4964 8.71002 28.4964H11.46Z" fill="#FF822D"/>
<path d="M8.83997 7.54639L6.02997 8.82639C5.78997 8.93639 5.63997 9.17639 5.63997 9.43639V9.67639C5.63997 9.95639 5.31997 10.1164 5.09997 9.95639C4.43997 9.49639 4.02997 8.69639 4.09997 7.81639C4.19997 6.62639 5.17997 5.67639 6.36997 5.62639C7.58997 5.57639 8.61997 6.41639 8.83997 7.54639Z" fill="#FFB02E"/>
<path d="M10.3717 14.5278C10.7477 12.7085 12.3458 11.3763 14.24 11.3763C16.12 11.3763 17.73 12.6863 18.11 14.5263L20.0087 23.7964H19.8V23.8064C17.5861 23.5103 14.8579 23.0591 13.2635 21.6538C11.3607 19.9766 10.7637 17.1543 10.3717 14.5278Z" fill="#FFB02E"/>
<path d="M15.46 26.9963V28.4964H12.71C12.3 28.4964 11.96 28.8364 11.96 29.2464C11.96 29.6564 12.29 29.9964 12.71 29.9964H18.21C18.62 29.9964 18.96 29.6564 18.96 29.2464C18.96 28.8364 18.62 28.4964 18.21 28.4964H16.96V26.9963H15.46Z" fill="#FFB02E"/>
<path d="M19.8 23.8064C14.94 23.1564 11.09 19.3464 10.37 14.5164C10.34 14.6464 10.32 14.7864 10.31 14.9164C10.27 15.2964 10.25 15.6764 10.25 16.0564C10.25 21.6464 14.41 26.2664 19.8 26.9864C20.25 26.9864 20.58 26.5764 20.49 26.1364L20.01 23.7964H19.8V23.8064Z" fill="#00A6ED"/>
<path d="M11.32 8.64C12.6013 8.64 13.64 7.6013 13.64 6.32C13.64 5.0387 12.6013 4 11.32 4C10.0387 4 9 5.0387 9 6.32C9 7.6013 10.0387 8.64 11.32 8.64Z" fill="#E6E6E6"/>
<path d="M11.32 7.36003C11.8944 7.36003 12.36 6.89441 12.36 6.32003C12.36 5.74565 11.8944 5.28003 11.32 5.28003C10.7457 5.28003 10.28 5.74565 10.28 6.32003C10.28 6.89441 10.7457 7.36003 11.32 7.36003Z" fill="#212121"/>
</svg>

<svg xmlns="http://www.w3.org/2000/svg" width="32" height="32" fill="none"><path fill="#F70A8D" d="M11.04 2.006a5.213 5.213 0 0 1 5.38 4.26l1.716 8.366-2.566 5.005 4.039 2.175.011.055v-.08l7.65-.73c.37-.03.69.26.68.63v2.19c0 1.72-1.39 3.12-3.12 3.12h-7.877l-.743.655-.743-.656H14.17c-.263 0-.523-.01-.78-.028l-.885.464-.548-.671C7.403 25.773 4 21.803 4 17.046c0-2.22.76-4.32 2.06-6.01.46-.58.58-1.36.33-2.06-.22-.62-.33-1.31-.3-2.02a5.176 5.176 0 0 1 4.95-4.95Z"/><path fill="#FF822D" d="M8.87 7.886a1.76 1.76 0 1 1-3.52 0 1.76 1.76 0 0 1 3.52 0ZM11.46 28.496l.49-1.737c.47.102.95.172 1.442.209l-.432 1.528h1.25c.41 0 .75.34.75.75s-.34.75-.75.75h-5.5a.749.749 0 1 1 0-1.5h2.75Z"/><path fill="#FFB02E" d="m8.84 7.546-2.81 1.28a.67.67 0 0 0-.39.61v.24c0 .28-.32.44-.54.28a2.373 2.373 0 0 1-1-2.14c.1-1.19 1.08-2.14 2.27-2.19a2.4 2.4 0 0 1 2.47 1.92ZM10.372 14.528a3.947 3.947 0 0 1 3.868-3.152c1.88 0 3.49 1.31 3.87 3.15l1.899 9.27H19.8v.01c-2.214-.296-4.942-.747-6.537-2.152-1.902-1.677-2.5-4.5-2.891-7.126ZM15.46 26.996v1.5h-2.75a.749.749 0 1 0 0 1.5h5.5c.41 0 .75-.34.75-.75s-.34-.75-.75-.75h-1.25v-1.5h-1.5Z"/><path fill="#00A6ED" d="M19.8 23.806c-4.86-.65-8.71-4.46-9.43-9.29-.03.13-.05.27-.06.4-.04.38-.06.76-.06 1.14 0 5.59 4.16 10.21 9.55 10.93.45 0 .78-.41.69-.85l-.48-2.34h-.21v.01Z"/><path fill="#E6E6E6" d="M11.32 8.64a2.32 2.32 0 1 0 0-4.64 2.32 2.32 0 0 0 0 4.64Z"/><path fill="#212121" d="M11.32 7.36a1.04 1.04 0 1 0 0-2.08 1.04 1.04 0 0 0 0 2.08Z"/></svg>
